Papirus/48x48/mimetypes/application-vnd.android.package-archive.svg

<svg xmlns="http://www.w3.org/2000/svg" width="48" height="48" version="1">
 <path style="opacity:0.2" d="M 10,5 C 8.892,5 8,5.892 8,7 v 36 c 0,1.108 0.892,2 2,2 h 28 c 1.108,0 2,-0.892 2,-2 V 17 L 29,16 28,5 Z"/>
 <path fill="#a3c639" d="m10 4c-1.108 0-2 0.892-2 2v36c0 1.108 0.892 2 2 2h28c1.108 0 2-0.892 2-2v-26l-11-1-1-11z"/>
 <path fill="#fff" style="opacity:0.2" d="m10 4c-1.108 0-2 0.892-2 2v1c0-1.108 0.892-2 2-2h18l11 11h1l-12-12z"/>
 <path style="opacity:0.2" d="m 28,5 v 10 c 0,1.1046 0.89543,2 2,2 h 10 z"/>
 <path fill="#d7f57c" d="m28 4v10c0 1.1046 0.89543 2 2 2h10l-12-12z"/>
 <path style="opacity:0.2" d="M 16.044,25 C 15.469,25 15,25.53 15,26.183 v 4.6305 c 0,0.653 0.469,1.186 1.044,1.186 0.575,0 0.956,-0.533 0.956,-1.186 V 26.183 c 0,-0.654 -0.38,-1.184 -0.956,-1.184"/>
 <path fill="#fff" d="m16.044 24c-0.575 0-1.044 0.53-1.044 1.183v4.6305c0 0.653 0.469 1.186 1.044 1.186s0.956-0.533 0.956-1.186v-4.6305c0-0.654-0.38-1.184-0.956-1.184"/>
 <path fill="#fff" d="m16.21 23.155"/>
 <path style="opacity:0.2" d="m 18,24 v 8.918 C 18,33.447 18.251,34 18.785,34 H 20 v 2.814 C 20,37.468 20.47,38 21.045,38 21.62,38 22,37.467 22,36.814 V 34 h 3 v 2.814 C 25,37.468 25.47,38 26.045,38 26.62,38 27,37.467 27,36.814 V 34 h 1.215 C 28.746,34 29,33.446 29,32.918 V 24 Z"/>
 <path fill="#fff" d="m18 23v8.918c0 0.529 0.251 1.082 0.785 1.082h1.215v2.814c0 0.654 0.47 1.186 1.045 1.186s0.955-0.533 0.955-1.186v-2.814h3v2.814c0 0.654 0.47 1.186 1.045 1.186s0.955-0.533 0.955-1.186v-2.814h1.215c0.531 0 0.785-0.554 0.785-1.082v-8.918h-11z"/>
 <path fill="#fff" d="m23.502 26.832"/>
 <path style="opacity:0.2" d="m 20.045,17.619 c -0.045,-0.01 -0.093,-0.004 -0.133,0.024 -0.08,0.05 -0.094,0.162 -0.033,0.246 l 1.016,1.418 C 19.28,20.028 18.145,21.402 18,23 h 11 c -0.145,-1.598 -1.275,-2.975 -2.889,-3.693 l 1.016,-1.418 c 0.061,-0.084 0.044,-0.193 -0.033,-0.246 -0.08,-0.054 -0.193,-0.028 -0.254,0.056 l -1.053,1.473 c -0.697,-0.265 -1.47,-0.412 -2.283,-0.412 -0.813,0 -1.587,0.147 -2.283,0.412 L 20.164,17.699 C 20.133,17.657 20.09,17.63 20.045,17.619 Z M 21.502,20 C 21.779,20 22,20.223 22,20.498 22,20.773 21.776,21 21.502,21 21.225,21 21,20.776 21,20.498 21,20.223 21.225,20 21.502,20 Z m 4,0 C 25.779,20 26,20.223 26,20.498 26,20.773 25.776,21 25.502,21 25.225,21 25,20.776 25,20.498 25,20.223 25.225,20 25.502,20 Z"/>
 <path fill="#fff" d="m20.045 16.619c-0.045-0.01-0.093-0.004-0.133 0.024-0.08 0.05-0.094 0.162-0.033 0.246l1.016 1.418c-1.615 0.721-2.75 2.095-2.895 3.693h11c-0.145-1.598-1.275-2.975-2.889-3.693l1.016-1.418c0.061-0.084 0.044-0.193-0.033-0.246-0.08-0.054-0.193-0.028-0.254 0.056l-1.053 1.473c-0.697-0.265-1.47-0.412-2.283-0.412s-1.587 0.147-2.283 0.412l-1.057-1.473c-0.031-0.042-0.074-0.069-0.119-0.08zm1.457 2.381c0.277 0 0.498 0.223 0.498 0.498s-0.224 0.502-0.498 0.502c-0.277 0-0.502-0.224-0.502-0.502 0-0.275 0.225-0.498 0.502-0.498zm4 0c0.277 0 0.498 0.223 0.498 0.498s-0.224 0.502-0.498 0.502c-0.277 0-0.502-0.224-0.502-0.502 0-0.275 0.225-0.498 0.502-0.498z"/>
 <path fill="#fff" d="m25.896 20.539"/>
 <path style="opacity:0.2" d="M 31.044,25 C 30.469,25 30,25.53 30,26.183 v 4.6305 c 0,0.653 0.469,1.186 1.044,1.186 0.575,0 0.956,-0.533 0.956,-1.186 V 26.183 c 0,-0.654 -0.38,-1.184 -0.956,-1.184"/>
 <path fill="#fff" d="m31.044 24c-0.575 0-1.044 0.53-1.044 1.183v4.6305c0 0.653 0.469 1.186 1.044 1.186s0.956-0.533 0.956-1.186v-4.6305c0-0.654-0.38-1.184-0.956-1.184"/>
 <path style="opacity:0.2" d="M 16.21,24.155"/>
 <path style="opacity:0.2" d="M 23.502,27.832"/>
 <path style="opacity:0.2" d="M 25.896,21.539"/>
</svg>

<svg xmlns="http://www.w3.org/2000/svg" width="48" height="48" version="1.1">
 <path style="opacity:0.2" d="M 10,5 C 8.892,5 8,5.892 8,7 V 43 C 8,44.108 8.892,45 10,45 H 38 C 39.108,45 40,44.108 40,43 V 17 L 28,5 Z"/>
 <path style="fill:#a3c639" d="M 10,4 C 8.892,4 8,4.892 8,6 V 42 C 8,43.108 8.892,44 10,44 H 38 C 39.108,44 40,43.108 40,42 V 16 L 30,14 28,4 Z"/>
 <path style="opacity:0.2" d="M 40,17 28,5 V 15 C 28,16.108 28.892,17 30,17 Z"/>
 <path style="fill:#d7f57c" d="M 40,16 28,4 V 14 C 28,15.108 28.892,16 30,16 Z"/>
 <path style="opacity:0.2;fill:#ffffff" d="M 10 4 C 8.892 4 8 4.892 8 6 L 8 7 C 8 5.892 8.892 5 10 5 L 28 5 L 28 4 L 10 4 z"/>
 <path style="opacity:0.2" d="M 16.044,24.999 C 15.469,24.999 15,25.529 15,26.182 V 30.813 C 15,31.466 15.469,31.999 16.044,31.999 16.619,31.999 17,31.466 17,30.813 V 26.182 C 17,25.528 16.62,24.998 16.044,24.998"/>
 <path style="fill:#ffffff" d="M 16.044,23.999 C 15.469,23.999 15,24.529 15,25.182 V 29.813 C 15,30.466 15.469,30.999 16.044,30.999 16.619,30.999 17,30.466 17,29.813 V 25.182 C 17,24.528 16.62,23.998 16.044,23.998"/>
 <path style="opacity:0.2" d="M 18,23.999 V 32.918 C 18,33.447 18.251,34 18.785,34 H 20 V 36.814 C 20,37.468 20.47,38 21.045,38 21.62,38 22,37.467 22,36.814 V 34 H 25 V 36.814 C 25,37.468 25.47,38 26.045,38 26.62,38 27,37.467 27,36.814 V 34 H 28.215 C 28.746,34 29,33.446 29,32.918 V 23.999 Z"/>
 <path style="fill:#ffffff" d="M 18,22.999 V 31.918 C 18,32.447 18.251,33 18.785,33 H 20 V 35.814 C 20,36.468 20.47,37 21.045,37 21.62,37 22,36.467 22,35.814 V 33 H 25 V 35.814 C 25,36.468 25.47,37 26.045,37 26.62,37 27,36.467 27,35.814 V 33 H 28.215 C 28.746,33 29,32.446 29,31.918 V 22.999 Z"/>
 <path style="opacity:0.2" d="M 20.045,17.618 C 20,17.609 19.952,17.614 19.912,17.642 19.832,17.692 19.818,17.804 19.879,17.888 L 20.895,19.306 C 19.28,20.027 18.145,21.401 18,22.999 H 29 C 28.855,21.401 27.725,20.024 26.111,19.306 L 27.127,17.888 C 27.188,17.804 27.171,17.695 27.094,17.642 27.014,17.589 26.901,17.614 26.84,17.698 L 25.787,19.171 C 25.09,18.906 24.317,18.759 23.504,18.759 22.691,18.759 21.917,18.906 21.221,19.171 L 20.164,17.698 C 20.133,17.656 20.09,17.629 20.045,17.618 Z M 21.502,19.999 C 21.779,19.999 22,20.222 22,20.497 22,20.772 21.776,20.999 21.502,20.999 21.225,20.999 21,20.775 21,20.497 21,20.222 21.225,19.999 21.502,19.999 Z M 25.502,19.999 C 25.779,19.999 26,20.222 26,20.497 26,20.772 25.776,20.999 25.502,20.999 25.225,20.999 25,20.775 25,20.497 25,20.222 25.225,19.999 25.502,19.999 Z"/>
 <path style="fill:#ffffff" d="M 20.045,16.619 C 20,16.609 19.952,16.615 19.912,16.643 19.832,16.693 19.818,16.805 19.879,16.889 L 20.895,18.306 C 19.28,19.027 18.145,20.401 18,21.999 H 29 C 28.855,20.401 27.725,19.024 26.111,18.306 L 27.127,16.889 C 27.188,16.805 27.171,16.696 27.094,16.643 27.014,16.589 26.901,16.615 26.84,16.699 L 25.787,18.171 C 25.09,17.906 24.317,17.759 23.504,17.759 22.691,17.759 21.917,17.906 21.221,18.171 L 20.164,16.699 C 20.133,16.657 20.09,16.63 20.045,16.619 Z M 21.502,18.999 C 21.779,18.999 22,19.222 22,19.497 22,19.772 21.776,19.999 21.502,19.999 21.225,19.999 21,19.775 21,19.497 21,19.222 21.225,18.999 21.502,18.999 Z M 25.502,18.999 C 25.779,18.999 26,19.222 26,19.497 26,19.772 25.776,19.999 25.502,19.999 25.225,19.999 25,19.775 25,19.497 25,19.222 25.225,18.999 25.502,18.999 Z"/>
 <path style="opacity:0.2" d="M 31.044,24.999 C 30.469,24.999 30,25.529 30,26.182 V 30.813 C 30,31.466 30.469,31.999 31.044,31.999 31.619,31.999 32,31.466 32,30.813 V 26.182 C 32,25.528 31.62,24.998 31.044,24.998"/>
 <path style="fill:#ffffff" d="M 31.044,23.999 C 30.469,23.999 30,24.529 30,25.182 V 29.813 C 30,30.466 30.469,30.999 31.044,30.999 31.619,30.999 32,30.466 32,29.813 V 25.182 C 32,24.528 31.62,23.998 31.044,23.998"/>
</svg>
